X:1
T: The Boys of our Town
C:
R:Strathspey
Q:128
K:D
M:4/4
L:1/16
|:dd3 B3d A3F D3F|GB3 A3F E4-E2A2|dd3 B3d A3F D3F|GB3 F3E D4-D2A2|
dd3 B3d A3F D3F|GB3 A3F E4-E2A2|dd3 B3d A3F D3F|GB3 F3E D4-D2A2|
d3e f3g a3f d3c|BB3 g3f e4-e2f2|dd3 B3d A3F D3F|GB3 G3E D4-D2A2|
d3e f3g a3f d3c|BB3 g3f e4-e2f2|dd3 B3d A3F D3F|GB3 G3E D4-D4:|
